icon/gr/gatsbyjs.svg

<svg xmlns="http://www.w3.org/2000/svg" viewBox="0 0 24 24" height="1em" width="1em">
  <path fill="#639" d="M12,24 C5.372583,24 0,18.627417 0,12 C0,5.372583 5.372583,0 12,0 C18.627417,0 24,5.372583 24,12 C24,18.627417 18.627417,24 12,24 Z M22,12.0921187 L15.5483871,12.0921187 L15.5483871,13.9264656 L19.9717742,13.9264656 C19.3266129,16.6787886 17.2983871,18.9719229 14.6262097,19.8898991 L4.02701613,9.33979569 C5.13306452,6.12868525 8.26653226,3.83514962 11.8616935,3.83514962 C14.6266129,3.83514962 17.1157258,5.21191322 18.6818548,7.32161278 L20.0649194,6.12948803 C18.2205645,3.65091216 15.2717742,2 11.8616935,2 C7.06895161,2 3.01370968,5.39454513 2,9.89009975 L14.1653226,22 C18.5887097,20.8989905 22,16.8622233 22,12.091316 L22,12.0921187 Z M2,12 C2,14.5927726 3.01847351,17.0923675 4.96305299,19.036947 C6.90763247,20.9815265 9.50040512,22 12,22 L2,12 Z"/>
</svg>

<svg xmlns="http://www.w3.org/2000/svg" width="24" height="24"><path fill="#639" d="M12 24C5.373 24 0 18.627 0 12S5.373 0 12 0s12 5.373 12 12-5.373 12-12 12Zm10-11.908h-6.452v1.834h4.424c-.645 2.753-2.674 5.046-5.346 5.964L4.027 9.34c1.106-3.211 4.24-5.505 7.835-5.505 2.765 0 5.254 1.377 6.82 3.487l1.383-1.193C18.22 3.651 15.272 2 11.862 2 7.069 2 3.014 5.395 2 9.89L14.165 22C18.59 20.899 22 16.862 22 12.091v.001ZM2 12c0 2.593 1.018 5.092 2.963 7.037C6.908 20.982 9.5 22 12 22L2 12Z"/></svg>
